X:022 
T:Boil the Kettle Early (reel) 
B:CRE5.199 (Tabhair Fiuchadh Don Chiteal go Luath)
F:file ID: cre.5/022boil_k
M:4/4
Q:180
R:reel
K:D
A2AB AGEF|GE=cE GEcB|[D2A2] AB AGEF|GE=cE EDD2:|
Addc d2ed|=c2 cB cde^c|Addc d2cd|efge fdd2|
f2fa gfed|e2ef edcA|(3ABc de f2ed|cAGE ADD2|]

%%%

